X:52
T:Slow Air,A,(Melody). BC.52
M:C|
L:1/8
Q:80
S:Benjamin Cooke MS.circa 1770, F.Kidson Coll.
R:Air
O:England
A:x
Z:vmp.John Bagnall
K:D
V:1
de | f2 f2 f2 ed | abag f2 d'2 | a2 b2 abag | f6 ||
fg | a2 a2 e2 ef | g2 g2 d2 de | f2 f2 gfed | edef e2 fg |
     a2 a2 e2 ef | g2 g2 d2 de | f2 gf Te3 d | d6 |]
V:2
K:D
A | d d d A | f/g/f/e/ d/c/d/e/ | f g f/g/f/e/ | d3 ||
d/e/ | f f a g/f/ | e e g f/e/ | d d d f | A3 d/e/ |
       f f a g/f/ | e e e/g/f/e/ | d Te A2| d3 |]

